!!!!SEGMENT: pl-cz--iii-592--004_rygall-ignacy--applaudite-jubilate-basso-solo-urget-filialis.krn
!!!cenid: 17xx:1098
!!!COM: Rygall, Ignacy
!!!COM-rismID: pe30110281
!!!CDT: <1750->1799
!!!CNT:
!!!OPR: Applaudite jubilate
!!!OTL: Basso solo - Urget filialis
!!!OMV: 004
!!!PDT:
!!!AGN:
!!!SMS-siglum: PL-CZ
!!!SMS-shelfmark: III-592
!!!SMS-shelfwork: 001-004 M
!!!SMS-variant:
!!!SMS-altvar:
!!!NIFC-rismSourceID: 300001121
!!!NIFC-rismChildID: 300001121
!!!NIFC-islandoraID: pl-cz:39438
!!!URL-pdf-islandora: https://repozytorium.nifc.pl/islandora/object/pl-cz%3A39438/datastream/PDF/view
!!!URL-scan: https://polish.musicsources.pl/pl/lokalizacje/galeria/rekopisy/6962/1 @EN{Scan on Polish Music Sources Website} @PL{Skany w portalu Dziedzictwo Muzyki Polskiej w otwartym dostępie}
!!!IIIF:
!!!ONB-nifc: UWAGA: części Applaudite jubilate: Euntre, Basso solo – Applaudite jubilate, Aria - Annus desideratus (Allegro molto), Basso solo – Urget filialis (Adagio), Tempo primo – Annus desideratus, Recitativo – Roboent ergo, Coro – Vivat Provincialis Wiktor
!!!OMD: Adagio
!!!AIN: 1 bass 2 cor 2 oboe 1 organ 2 soprn 1 timpa 2 violn
!!!key: D
**kern	**kern	**dynam	**kern	**dynam	**kern	**text	**kern	**kern	**kern	**kern	**kern	**kern	**kern	**dynam
*part11	*part10	*part10	*part9	*part9	*part8	*part8	*part7	*part6	*part5	*part4	*part3	*part2	*part1	*part1
*staff11	*staff10	*	*staff9	*	*staff8	*staff8	*staff7	*staff6	*staff5	*staff4	*staff3	*staff2	*staff1	*
*I"Baſso	*I"Violino Secundo.	*	*I"Violino Primo.	*	*I"BASSO	*	*I"Canto IIdo	*I"Canto 1mo	*I"Tympano	*I"Cornu 2do in D.	*I"Cornu 1mo in D	*I"Oboe IIdo	*I"Oboe 1mo	*
*I'org (=b)	*I'vl 2	*	*I'vl 1	*	*I'B	*	*I'S 2	*I'S 1	*I'timp	*I'cor 2	*I'cor 1	*I'ob 2	*I'ob 1	*
*Iorgan	*Ivioln	*	*Ivioln	*	*Ibass	*	*Isoprn	*Isoprn	*Itimpa	*Icor	*Icor	*Ioboe	*Ioboe	*
*ICklav	*ICstr	*	*ICstr	*	*ICvox	*	*ICvox	*ICvox	*ICidio	*ICbras	*ICbras	*ICww	*ICww	*
*clefF4	*clefG2	*	*clefG2	*	*clefF4	*	*clefC1	*clefC1	*clefF4	*clefG2	*clefG2	*clefG2	*clefG2	*
*ITrd0c0	*	*	*	*	*	*	*	*	*	*ITrd6c10	*ITrd6c10	*	*	*
*ok[f#g#c#]	*	*	*	*	*	*	*	*	*	*	*	*	*	*
*k[f#c#g#]	*k[f#c#]	*	*k[f#c#g#]	*	*k[f#c#]	*	*k[f#c#]	*k[f#c#]	*k[f#c#]	*k[f#c#]	*k[f#c#]	*k[f#c#]	*k[f#c#]	*
*D:	*D:	*	*D:	*	*D:	*	*D:	*D:	*D:	*D:	*D:	*D:	*D:	*
*M3/4	*M3/4	*	*M3/4	*	*M3/4	*	*M3/4	*M3/4	*M3/4	*M3/4	*M3/4	*M3/4	*M3/4	*
=1	=1	=1	=1	=1	=1	=1	=1	=1	=1	=1	=1	=1	=1	=1
!LO:TX:t=P:problem=tonacja D a 3 krzyżyki przy kluczu	!	!	!	!	!	!	!LO:TX:a:t=Recit&colon; Aria Tace,	!	!LO:TX:a:t=Tace	!LO:TX:a:t=Adagio Tace	!LO:TX:a:t=Adagio\nTacet.	!LO:TX:a:t=Adagio	!LO:TX:a:t=adagio	!
!LO:TX:t=P:problem=mixed beam	!	!LO:DY:b:t=pianiſ	!LO:TX:t=P:problem=tonacja D a 3 krzyżyki przy kluczu	!	!	!	!	!LO:TX:t=P:problem=brak partii S 1	!	!	!	!	!	!
8AA/L	8cc#|\L	pp	8ee|\L	.	8e\L	Ur-	2.ryy	2.ryy	2.ryy	2.ryy	2.ryy	2.r	2.r	.
8A\	(16b\L	.	(16dd\L	.	16d\L	-get	.	.	.	.	.	.	.	.
.	16a\JJ)	.	16cc#\JJ)	.	16c#\JJ	.	.	.	.	.	.	.	.	.
8AA/	8a|\L	.	8cc#\L	.	8c#\L	fi-	.	.	.	.	.	.	.	.
8A\	8cc#|\	.	8ee\	.	8e\	.	.	.	.	.	.	.	.	.
8AA/	(8dd\	.	8ff#\	.	8f#\	-li-	.	.	.	.	.	.	.	.
8A\J	8cc#\J)	.	8ee\J	.	8e\J	.	.	.	.	.	.	.	.	.
!	!	!	!	!	!	!	!	!	!	!	!	!LO:LB:g=original	!	!
=2	=2	=2	=2	=2	=2	=2	=2	=2	=2	=2	=2	=2	=2	=2
.	8qqcc#/	.	8qqee/	.	.	.	.	.	.	.	.	.	.	.
8r	8b\L	.	8dd\L	.	8d\L	-a-	2.ryy	2.ryy	2.ryy	2.ryy	2.ryy	8r	8r	.
16E\LL	8a#X\J	.	8cc#\J	.	8c#\J	.	.	.	.	.	.	16b\LL	16dd\LL	.
16D#X\JJ	.	.	.	.	.	.	.	.	.	.	.	16a\JJ	16cc#\JJ	.
!LO:TX:t=P:problem=mixed beam	!	!	!	!	!	!	!	!	!	!	!	!	!	!
8E\L	4b\	.	4dd\	.	4d\	-lis	.	.	.	.	.	8b\L	8dd\L	.
8E\	.	.	.	.	.	.	.	.	.	.	.	8b\J	8dd\J	.
8EE/	4r	.	4r	.	4r	.	.	.	.	.	.	4b\	4dd\	.
8E\J	.	.	.	.	.	.	.	.	.	.	.	.	.	.
!	!LO:LB:g=original	!	!	!	!LO:LB:g=original	!	!	!	!	!	!	!	!	!
=3	=3	=3	=3	=3	=3	=3	=3	=3	=3	=3	=3	=3	=3	=3
*2\right	*	*	*	*	*	*	*	*	*	*	*	*	*	*
*tremolo	*	*	*	*	*	*	*	*	*	*	*	*	*	*
.	.	.	8qqee/	.	.	.	.	.	.	.	.	.	.	.
8E\L	8b|\L	.	8dd\L	.	8d\L	fi-	2.ryy	2.ryy	2.ryy	2.ryy	2.ryy	4b\	4dd\	.
8E\	(16a\L	.	16cc#\L	.	16c#\L	-li-	.	.	.	.	.	.	.	.
.	16g#X\JJ)	.	16b\JJ	.	16B\JJ	.	.	.	.	.	.	.	.	.
8E\	8g#|\L	.	8b\L	.	8c#\L	-a-	.	.	.	.	.	4r	4r	.
8E\J	8b|\	.	8dd\	.	8d\	.	.	.	.	.	.	.	.	.
8E\L	(8cc#\	.	8ee\	.	8e\	-lis	.	.	.	.	.	4r	4r	.
8E\J	8b\J)	.	8dd\J	.	8d\J	af-	.	.	.	.	.	.	.	.
*Xtremolo	*	*	*	*	*	*	*	*	*	*	*	*	*	*
=4	=4	=4	=4	=4	=4	=4	=4	=4	=4	=4	=4	=4	=4	=4
8r	8a\L	.	8cc#\L	.	8c#\L	-fec-	2.ryy	2.ryy	2.ryy	2.ryy	2.ryy	4a\	4cc#\	.
16A\LL	8g#X\J	.	8b\J	.	8B\J	.	.	.	.	.	.	.	.	.
16G#X\JJ	.	.	.	.	.	.	.	.	.	.	.	.	.	.
!LO:TX:t=P:problem=mixed beam	!	!	!	!	!	!	!	!	!	!	!	!	!	!
8A\L	4a\	.	4cc#\	.	4c#\	-tus	.	.	.	.	.	4r	4r	.
8A\	.	.	.	.	.	.	.	.	.	.	.	.	.	.
8AA/	8cc#\L	.	8ee\L	.	8e\L	fi-	.	.	.	.	.	4r	4r	.
8A\J	8a\J	.	8cc#\J	.	8c#\J	.	.	.	.	.	.	.	.	.
=5	=5	=5	=5	=5	=5	=5	=5	=5	=5	=5	=5	=5	=5	=5
4D\	4f#/	.	(16cc#\LL	.	16c#\LL	.	2.ryy	2.ryy	2.ryy	2.ryy	2.ryy	2.r	2.r	.
.	.	.	16b\)	.	16B\	.	.	.	.	.	.	.	.	.
.	.	.	(16dd\	.	16d\	-li-	.	.	.	.	.	.	.	.
.	.	.	16b\JJ)	.	16B\JJ	.	.	.	.	.	.	.	.	.
4E\	(16d/LL	.	(16b\LL	.	16B\LL	-a-	.	.	.	.	.	.	.	.
.	16c#/)	.	16a\)	.	16A\	.	.	.	.	.	.	.	.	.
.	(16e/	.	(16cc#\	.	16c#\	-lis	.	.	.	.	.	.	.	.
.	16c#/JJ)	.	16a\JJ)	.	16A\JJ	.	.	.	.	.	.	.	.	.
4EE/	(16c#/LL	.	(16a\LL	.	16A\LL	af-	.	.	.	.	.	.	.	.
.	16B/)	.	16g#X\)	.	16G#X\	.	.	.	.	.	.	.	.	.
.	(16d/	.	16b|\	.	16B\	.	.	.	.	.	.	.	.	.
.	16B/JJ)	.	16g#|\JJ	.	16G#\JJ	.	.	.	.	.	.	.	.	.
!	!	!	!LO:LB:g=original	!	!	!	!	!	!	!	!	!	!	!
=6	=6	=6	=6	=6	=6	=6	=6	=6	=6	=6	=6	=6	=6	=6
4AA/	4c#/	.	4a/	.	4A\	-fe-	2.ryy	2.ryy	2.ryy	2.ryy	2.ryy	8a\L	8a/L	.
.	.	.	.	.	.	.	.	.	.	.	.	16cc#\L	16ee/L	.
.	.	.	.	.	.	.	.	.	.	.	.	16dd\JJ	16ff#/JJ	.
4r	4c#/	.	4e/	.	4E\	-ctus	.	.	.	.	.	8cc#\L	8ee/L	.
.	.	.	.	.	.	.	.	.	.	.	.	8a\	8cc#/	.
4E\	4r	.	4r	.	4r	.	.	.	.	.	.	8b\	8dd/	.
.	.	.	.	.	.	.	.	.	.	.	.	8g#X\J	8b/J	.
=7	=7	=7	=7	=7	=7	=7	=7	=7	=7	=7	=7	=7	=7	=7
*tremolo	*	*	*	*	*	*	*	*	*	*	*	*	*	*
!	!	!	!	!	!LO:TX:t=P:problem=6 taktów zapisane jako repetycja	!	!	!	!	!	!	!	!	!LO:DY:b:t=p&colon;
8A\L	8cc#|\L	.	8ee|\L	.	8e\L	Ur-	2.ryy	2.ryy	2.ryy	2.ryy	2.ryy	8cc#\L	8ee\L	p
8A\	(16b\L	.	(16dd\L	.	16d\L	-get	.	.	.	.	.	16b\L	16dd\L	.
.	16a\JJ)	.	16cc#\JJ)	.	16c#\JJ	.	.	.	.	.	.	16a\JJ	16cc#\JJ	.
8A\	8a|\L	.	8cc#\L	.	8c#\L	fi-	.	.	.	.	.	8a\L	8cc#\L	.
8A\J	8cc#|\	.	8ee|\	.	8e\	.	.	.	.	.	.	8cc#\	8ee\	.
*Xtremolo	*	*	*	*	*	*	*	*	*	*	*	*	*	*
4A\	(8dd\	.	(8ff#\	.	8f#\	-li-	.	.	.	.	.	8dd\	8ff#\	.
.	8cc#\J)	.	8ee\J)	.	8e\J	.	.	.	.	.	.	8cc#\J	8ee\J	.
!LO:LB:g=original	!	!	!	!	!	!	!	!	!	!	!	!	!	!
=8	=8	=8	=8	=8	=8	=8	=8	=8	=8	=8	=8	=8	=8	=8
.	8qqcc#/	.	8qqee/	.	.	.	.	.	.	.	.	.	.	.
8r	8b\L	.	8dd\L	.	8d\L	-a-	2.ryy	2.ryy	2.ryy	2.ryy	2.ryy	8r	8r	.
16E\LL	8a#X\J	.	8cc#\J	.	8c#\J	.	.	.	.	.	.	16b\LL	16dd\LL	.
16D#X\JJ	.	.	.	.	.	.	.	.	.	.	.	16a\JJ	16cc#\JJ	.
!LO:TX:t=P:problem=mixed beam	!	!	!	!	!	!	!	!	!	!	!	!	!	!
8E\L	4b\	.	4dd\	.	4d\	-lis	.	.	.	.	.	8b\L	8dd\L	.
8E\	.	.	.	.	.	.	.	.	.	.	.	8b\J	8dd\J	.
8EE/	4r	.	4r	.	4r	.	.	.	.	.	.	4b\	4dd\	.
8E\J	.	.	.	.	.	.	.	.	.	.	.	.	.	.
=9	=9	=9	=9	=9	=9	=9	=9	=9	=9	=9	=9	=9	=9	=9
.	.	.	8qqee/	.	.	.	.	.	.	.	.	.	.	.
*tremolo	*	*	*	*	*	*	*	*	*	*	*	*	*	*
8E\L	8b|\L	.	8dd|\L	.	8d\L	fi-	2.ryy	2.ryy	2.ryy	2.ryy	2.ryy	8b\L	8dd\L	.
8E\	(16a\L	.	(16cc#\L	.	16c#\L	-li-	.	.	.	.	.	16a\L	16cc#\L	.
.	16g#X\JJ)	.	16b\JJ)	.	16B\JJ	.	.	.	.	.	.	16g#X\JJ	16b\JJ	.
8E\	8g#|\L	.	8b|\L	.	8c#\L	-a-	.	.	.	.	.	8g#\L	8b\L	.
8E\J	8b|\	.	8dd|\	.	8d\	.	.	.	.	.	.	8b\	8dd\	.
8E\L	(8cc#\	.	8ee\	.	8e\	-lis	.	.	.	.	.	8cc#\	8ee\	.
8E\J	8b\J)	.	8dd\J	.	8d\J	af-	.	.	.	.	.	8b\J	8dd\J	.
*Xtremolo	*	*	*	*	*	*	*	*	*	*	*	*	*	*
!	!	!	!	!	!	!	!	!	!	!	!	!	!LO:LB:g=original	!
=10	=10	=10	=10	=10	=10	=10	=10	=10	=10	=10	=10	=10	=10	=10
8r	8a\L	.	(8cc#\L	.	8c#\L	-fec-	2.ryy	2.ryy	2.ryy	2.ryy	2.ryy	4a\	4cc#\	.
16A\LL	8g#X\J	.	8b\J)	.	8B\J	.	.	.	.	.	.	.	.	.
16G#X\JJ	.	.	.	.	.	.	.	.	.	.	.	.	.	.
!LO:TX:t=P:problem=mixed beam	!	!	!	!	!	!	!	!	!	!	!	!	!	!
8A\L	4a\	.	4cc#|\	.	4c#\	-tus	.	.	.	.	.	4a\	4cc#\	.
8A\	.	.	.	.	.	.	.	.	.	.	.	.	.	.
8AA/	8cc#\L	.	(8ee\L	.	8e\L	fi-	.	.	.	.	.	4cc#\	4aa\	.
8A\J	8a\J	.	8cc#\J)	.	8c#\J	.	.	.	.	.	.	.	.	.
!	!LO:LB:g=original	!	!	!	!	!	!	!	!	!	!	!	!	!
=11	=11	=11	=11	=11	=11	=11	=11	=11	=11	=11	=11	=11	=11	=11
4D\	4f#/	.	(16cc#\LL	.	16c#\LL	.	2.ryy	2.ryy	2.ryy	2.ryy	2.ryy	4dd\	4bb\	.
.	.	.	16b\)	.	16B\	.	.	.	.	.	.	.	.	.
.	.	.	(16dd\	.	16d\	-li-	.	.	.	.	.	.	.	.
.	.	.	16b\JJ)	.	16B\JJ	.	.	.	.	.	.	.	.	.
4E\	(16d/LL	.	(16b\LL	.	16B\LL	-a-	.	.	.	.	.	4cc#\	4aa\	.
.	16c#/)	.	16a\)	.	16A\	.	.	.	.	.	.	.	.	.
.	(16e/	.	(16cc#\	.	16c#\	-lis	.	.	.	.	.	.	.	.
.	16c#/JJ)	.	16a\JJ)	.	16A\JJ	.	.	.	.	.	.	.	.	.
4EE/	(16c#/LL	.	(16a\LL	.	16A\LL	af-	.	.	.	.	.	4b\	4gg#X\	.
.	16B/)	.	16g#X\)	.	16G#X\	.	.	.	.	.	.	.	.	.
.	(16d/	.	(16b\	.	16B\	.	.	.	.	.	.	.	.	.
.	16B/JJ)	.	16g#\JJ)	.	16G#\JJ	.	.	.	.	.	.	.	.	.
!	!	!	!	!	!	!	!	!	!	!	!	!LO:LB:g=original	!	!
=12	=12	=12	=12	=12	=12	=12	=12	=12	=12	=12	=12	=12	=12	=12
4AA/	4c#/	.	4a/	.	4A\	-fe-	2.ryy	2.ryy	2.ryy	2.ryy	2.ryy	8cc#\L	8aa\L	.
.	.	.	.	.	.	.	.	.	.	.	.	16cc#\L	16ee\L	.
.	.	.	.	.	.	.	.	.	.	.	.	16dd\JJ	16ff#\JJ	.
4r	4c#/	.	4e/	.	4E\	-ctus	.	.	.	.	.	8cc#\L	8ee\L	.
.	.	.	.	.	.	.	.	.	.	.	.	8a\	8cc#\	.
4E\	4r	.	4r	.	4r	.	.	.	.	.	.	8b\	8dd\	.
.	.	.	.	.	.	.	.	.	.	.	.	8g#X\J	8b\J	.
=13	=13	=13	=13	=13	=13	=13	=13	=13	=13	=13	=13	=13	=13	=13
*tremolo	*	*	*	*	*	*	*	*	*	*	*	*	*	*
8A\L	4c#/	.	4a\	.	8.A\	ex	2.ryy	2.ryy	2.ryy	2.ryy	2.ryy	4a\	4cc#\	.
8A\	.	.	.	.	.	.	.	.	.	.	.	.	.	.
.	.	.	.	.	16A\	pos-	.	.	.	.	.	.	.	.
8A\	4c#/	.	4a\	.	4A\	-tu-	.	.	.	.	.	4r	4r	.
8A\J	.	.	.	.	.	.	.	.	.	.	.	.	.	.
8A\L	4a\	.	4cc#\	.	4c#\	-lat	.	.	.	.	.	4r	4r	.
8A\J	.	.	.	.	.	.	.	.	.	.	.	.	.	.
!	!	!	!	!	!LO:LB:g=original	!	!	!	!	!	!	!	!	!
=14	=14	=14	=14	=14	=14	=14	=14	=14	=14	=14	=14	=14	=14	=14
!	!	!	!	!	!	!	!	!	!	!	!	!LO:TX:a:t=5	!	!
8A\L	8a\L	.	8cc#\L	.	8B\	di-	2.ryy	2.ryy	2.ryy	2.ryy	2.ryy	0.r	0.r	.
8A\	8g#X\J	.	8b\J	.	8B\	-gni-	.	.	.	.	.	.	.	.
*	*	*	*2\right	*	*	*	*	*	*	*	*	*	*	*
*	*tremolo	*	*tremolo	*	*	*	*	*	*	*	*	*	*	*
8A\	8g#\L	.	8b\L	.	4B\	-tas.	.	.	.	.	.	.	.	.
8A\J	8g#\	.	8b\	.	.	.	.	.	.	.	.	.	.	.
8A\L	8g#\	.	8b\	.	4r	.	.	.	.	.	.	.	.	.
8A\J	8g#\J	.	8b\J	.	.	.	.	.	.	.	.	.	.	.
!	!	!	!LO:LB:g=original	!	!	!	!	!	!	!	!	!	!	!
=15	=15	=15	=15	=15	=15	=15	=15	=15	=15	=15	=15	=15	=15	=15
8G#X\L	8e/L	.	8b\L	.	4B\	di-	2.ryy	2.ryy	2.ryy	2.ryy	2.ryy	.	.	.
8G#X\	8e/	.	8b\	.	.	.	.	.	.	.	.	.	.	.
8G#X\	8e/	.	8b\	.	4B\	-gni-	.	.	.	.	.	.	.	.
8G#X\J	8e/J	.	8b\J	.	.	.	.	.	.	.	.	.	.	.
*	*Xtremolo	*	*Xtremolo	*	*	*	*	*	*	*	*	*	*	*
8G#\L	8b\L	.	8dd\L	.	4d\	-tas	.	.	.	.	.	.	.	.
8G#\J	8b\J	.	8dd\J	.	.	.	.	.	.	.	.	.	.	.
=16	=16	=16	=16	=16	=16	=16	=16	=16	=16	=16	=16	=16	=16	=16
8A\L	8b\L	.	8dd\L	.	4dn\	Pa-	2.ryy	2.ryy	2.ryy	2.ryy	2.ryy	.	.	.
8A\	8e\	.	8dd\J	.	.	.	.	.	.	.	.	.	.	.
*	*	*	*tremolo	*	*	*	*	*	*	*	*	*	*	*
8A\	8e\	.	8cc#\L	.	4c#\	-tris	.	.	.	.	.	.	.	.
8A\J	8e\	.	8cc#\	.	.	.	.	.	.	.	.	.	.	.
8A\L	8e\	.	8cc#\	.	8r	.	.	.	.	.	.	.	.	.
8A\J	8e\J	.	8cc#\J	.	8A\	et	.	.	.	.	.	.	.	.
*Xtremolo	*	*	*Xtremolo	*	*	*	*	*	*	*	*	*	*	*
=17	=17	=17	=17	=17	=17	=17	=17	=17	=17	=17	=17	=17	=17	=17
4d\	4a\	.	4ff#\	.	4f#\	nos-	2.ryy	2.ryy	2.ryy	2.ryy	2.ryy	.	.	.
4c#\	4a\	.	4ee\	.	4e\	-tra	.	.	.	.	.	.	.	.
8r	8cc#\L	.	8aa\L	.	8r	.	.	.	.	.	.	.	.	.
8c#\	8a\J	.	8ee\J	.	8e\	et	.	.	.	.	.	.	.	.
=18	=18	=18	=18	=18	=18	=18	=18	=18	=18	=18	=18	=18	=18	=18
.	.	.	8qqee/	.	.	.	.	.	.	.	.	.	.	.
4B\	4g#X\	.	4dd\	.	4d\	nos-	2.ryy	2.ryy	2.ryy	2.ryy	2.ryy	2.r	2.r	.
4A\	4a\	.	4cc#\	.	4c#\	-tra	.	.	.	.	.	.	.	.
4C#\	8cc#\L	.	8ee\L	.	4r	.	.	.	.	.	.	.	.	.
.	8a\J	.	8cc#\J	.	.	.	.	.	.	.	.	.	.	.
!LO:LB:g=original	!	!	!	!	!	!	!	!	!	!	!	!	!	!
=19	=19	=19	=19	=19	=19	=19	=19	=19	=19	=19	=19	=19	=19	=19
*tremolo	*tremolo	*	*	*	*	*	*	*	*	*	*	*2\right	*2\right	*
8D\L	8f#/L	.	4b\	.	8B\	fi-	2.ryy	2.ryy	2.ryy	2.ryy	2.ryy	2b\	2ff#\	.
8D\	8f#/	.	.	.	8B\	-li-	.	.	.	.	.	.	.	.
8D\	8f#/	.	4b\	.	4B\	-a-	.	.	.	.	.	.	.	.
8D\J	8f#/J	.	.	.	.	.	.	.	.	.	.	.	.	.
*Xtremolo	*	*	*	*	*	*	*	*	*	*	*	*	*	*
8D#X\L	8f#/L	.	4a\	.	8F#\	-lis	.	.	.	.	.	4r	4r	.
8D#\J	8f#/J	.	.	.	8A\	pro-	.	.	.	.	.	.	.	.
!	!LO:LB:g=original	!	!	!	!LO:LB:g=original	!	!	!	!	!	!	!	!	!
=20	=20	=20	=20	=20	=20	=20	=20	=20	=20	=20	=20	=20	=20	=20
*tremolo	*	*	*	*	*	*	*	*	*	*	*	*	*	*
8E\L	8g#X/L	.	8a\L	.	8.A\	-pen-	2.ryy	2.ryy	2.ryy	2.ryy	2.ryy	4b\	4gg#X\	.
8E\	8g#X/	.	8g#X\J	.	.	.	.	.	.	.	.	.	.	.
!	!	!	!	!	!LO:SIC:v:s=16G#\	!	!	!	!	!	!	!	!	!
.	.	.	.	.	16G\	-si-	.	.	.	.	.	.	.	.
!	!	!	!	!	!LO:SIC:v:s=4G#\	!	!	!	!	!	!	!	!	!
8E\	8g#X/	.	4g#\	.	4G\	-o	.	.	.	.	.	4r	4r	.
8E\J	8g#X/J	.	.	.	.	.	.	.	.	.	.	.	.	.
8E\L	8g#/L	.	4b\	.	8B\	fi-	.	.	.	.	.	4r	4r	.
8E\J	8g#/J	.	.	.	8B\	-li-	.	.	.	.	.	.	.	.
*Xtremolo	*	*	*	*	*	*	*	*	*	*	*	*	*	*
=21	=21	=21	=21	=21	=21	=21	=21	=21	=21	=21	=21	=21	=21	=21
8Dn\L	8f#/L	.	4b\	.	4B\	-a-	2.ryy	2.ryy	2.ryy	2.ryy	2.ryy	2b\	2ff#\	.
8D\	8f#/	.	.	.	.	.	.	.	.	.	.	.	.	.
8D#X\	8f#/	.	4f#\	.	4F#\	-lis	.	.	.	.	.	.	.	.
8D#\	8f#/J	.	.	.	.	.	.	.	.	.	.	.	.	.
8D#\	8f#/L	.	4a\	.	4A\	pro-	.	.	.	.	.	4r	4r	.
8D#\J	8f#/J	.	.	.	.	.	.	.	.	.	.	.	.	.
=22	=22	=22	=22	=22	=22	=22	=22	=22	=22	=22	=22	=22	=22	=22
*tremolo	*	*	*	*	*	*	*	*	*	*	*	*	*	*
8E\L	8g#X/L	.	8a\L	.	8.A\	-pen-	2.ryy	2.ryy	2.ryy	2.ryy	2.ryy	4b\	4gg#X\	.
8E\	8g#X/	.	8g#X\J	.	.	.	.	.	.	.	.	.	.	.
!	!	!	!	!	!LO:SIC:v:s=16G#\	!	!	!	!	!	!	!	!	!
.	.	.	.	.	16G\	-si-	.	.	.	.	.	.	.	.
!	!	!	!	!	!LO:SIC:v:s=4G#\	!	!	!	!	!	!	!	!	!
8E\	8g#X/	.	4g#\	.	4G\	-o	.	.	.	.	.	4r	4r	.
8E\J	8g#X/J	.	.	.	.	.	.	.	.	.	.	.	.	.
8E\L	8g#/L	.	4r	.	4r	.	.	.	.	.	.	4r	4r	.
8E\J	8g#/J	.	.	.	.	.	.	.	.	.	.	.	.	.
*Xtremolo	*Xtremolo	*	*	*	*	*	*	*	*	*	*	*	*	*
=23	=23	=23	=23	=23	=23	=23	=23	=23	=23	=23	=23	=23	=23	=23
*	*	*	*	*	*2\right	*	*	*	*	*	*	*	*	*
!	!	!	!	!	!	!	!	!	!	!	!	!LO:TX:a:t=2	!	!
8E\L	4g#X/	.	2.dd\	.	2.d\	et	2.ryy	2.ryy	2.ryy	2.ryy	2.ryy	1.r	1.r	.
8E\	.	.	.	.	.	.	.	.	.	.	.	.	.	.
8F#\	4a/	.	.	.	.	.	.	.	.	.	.	.	.	.
8F#\	.	.	.	.	.	.	.	.	.	.	.	.	.	.
8G#X\	4b/	.	.	.	.	.	.	.	.	.	.	.	.	.
8G#\J	.	.	.	.	.	.	.	.	.	.	.	.	.	.
=24	=24	=24	=24	=24	=24	=24	=24	=24	=24	=24	=24	=24	=24	=24
8A\L	4e/	.	4cc#\	.	4c#\	nos-	2.ryy	2.ryy	2.ryy	2.ryy	2.ryy	.	.	.
8A\	.	.	.	.	.	.	.	.	.	.	.	.	.	.
8E\	4d/	.	4b\	.	4B\	-tra	.	.	.	.	.	.	.	.
8E\J	.	.	.	.	.	.	.	.	.	.	.	.	.	.
4AA/	4c#/	.	4a\	.	8A\	fi-	.	.	.	.	.	.	.	.
.	.	.	.	.	8A\	-li-	.	.	.	.	.	.	.	.
=25	=25	=25	=25	=25	=25	=25	=25	=25	=25	=25	=25	=25	=25	=25
!LO:TX:t=P:problem=mixed beam	!	!	!LO:TX:t=P:problem=mixed beam	!	!	!	!	!	!	!	!	!	!	!
8D\L	4f#/	.	8f#/L	.	8F#\	-a-	2.ryy	2.ryy	2.ryy	2.ryy	2.ryy	4b\	4dd\	.
8D\	.	.	16dd\L	.	16d\	-lis	.	.	.	.	.	.	.	.
.	.	.	16b\JJ	.	16B\	pro-	.	.	.	.	.	.	.	.
8E\	4c#/	.	4a\	.	4A\	-pen-	.	.	.	.	.	4a\	4cc#\	.
8E\	.	.	.	.	.	.	.	.	.	.	.	.	.	.
8EE/	4B/	.	4g#X\	.	4G#X\	-si-	.	.	.	.	.	4g#X\	4b\	.
8EE/J	.	.	.	.	.	.	.	.	.	.	.	.	.	.
!	!	!	!	!	!LO:LB:g=original	!	!	!	!	!	!	!	!	!
=26	=26	=26	=26	=26	=26	=26	=26	=26	=26	=26	=26	=26	=26	=26
*	*	*	*^	*	*	*	*	*	*	*	*	*	*	*
4AA/	4c#/	.	4a/	4e\	.	16A\LL	-o	2.ryy	2.ryy	2.ryy	2.ryy	2.ryy	4a\	4a\	.
.	.	.	.	.	.	16B\	.	.	.	.	.	.	.	.	.
.	.	.	.	.	.	16A\	.	.	.	.	.	.	.	.	.
.	.	.	.	.	.	16B\JJ	.	.	.	.	.	.	.	.	.
4r	4r	.	4r	2ryy	.	16c#\LL	.	.	.	.	.	.	4r	4r	.
.	.	.	.	.	.	16d\	.	.	.	.	.	.	.	.	.
.	.	.	.	.	.	16c#\	.	.	.	.	.	.	.	.	.
.	.	.	.	.	.	16d\JJ	.	.	.	.	.	.	.	.	.
4r	4r	.	4r	.	.	16d#X\LL	.	.	.	.	.	.	4r	4r	.
.	.	.	.	.	.	16e\	.	.	.	.	.	.	.	.	.
.	.	.	.	.	.	16d#\	.	.	.	.	.	.	.	.	.
.	.	.	.	.	.	16c#\JJ	.	.	.	.	.	.	.	.	.
*	*	*	*v	*v	*	*	*	*	*	*	*	*	*	*	*
!	!	!	!	!	!	!	!	!	!	!	!	!LO:LB:g=original	!LO:LB:g=original	!
=27	=27	=27	=27	=27	=27	=27	=27	=27	=27	=27	=27	=27	=27	=27
!LO:TX:t=P:problem=mixed beam	!	!	!	!	!	!	!	!	!	!	!	!	!	!
8D\L	(16e/LL	.	(16cc#\LL	.	8B\L	pro	2.ryy	2.ryy	2.ryy	2.ryy	2.ryy	4dd\	4bb\	.
.	16d/)	.	16b\)	.	.	.	.	.	.	.	.	.	.	.
8D\	(16f#/	.	16dd|\	.	16d\L	.	.	.	.	.	.	.	.	.
.	16d/JJ)	.	16b|\JJ	.	16B\JJ	.	.	.	.	.	.	.	.	.
8E\	(16d/LL	.	(16b\LL	.	4A\	pen-	.	.	.	.	.	4cc#\	4aa\	.
.	16c#/)	.	16a\)	.	.	.	.	.	.	.	.	.	.	.
8E\	(16e/	.	16cc#|\	.	.	.	.	.	.	.	.	.	.	.
.	16c#/JJ)	.	16a|\JJ	.	.	.	.	.	.	.	.	.	.	.
8EE/	(16c#/LL	.	(16a\LL	.	4G#X\	-si-	.	.	.	.	.	4b\	4gg#X\	.
.	16B/)	.	16g#X\)	.	.	.	.	.	.	.	.	.	.	.
8EE/J	(16d/	.	16b|\	.	.	.	.	.	.	.	.	.	.	.
.	16B/JJ)	.	16g#|\JJ	.	.	.	.	.	.	.	.	.	.	.
!LO:LB:g=original	!	!	!	!	!	!	!	!	!	!	!	!	!	!
=28	=28	=28	=28	=28	=28	=28	=28	=28	=28	=28	=28	=28	=28	=28
4AA/	4c#/	.	4a\	.	16A\LL	-o	2.ryy	2.ryy	2.ryy	2.ryy	2.ryy	4cc#\	4aa\	.
.	.	.	.	.	16B\	.	.	.	.	.	.	.	.	.
.	.	.	.	.	16A\	.	.	.	.	.	.	.	.	.
.	.	.	.	.	16B\JJ	.	.	.	.	.	.	.	.	.
4r	4r	.	4r	.	16c#\LL	.	.	.	.	.	.	4r	4r	.
.	.	.	.	.	16d\	.	.	.	.	.	.	.	.	.
.	.	.	.	.	16c#\	.	.	.	.	.	.	.	.	.
.	.	.	.	.	16d\JJ	.	.	.	.	.	.	.	.	.
4r	4r	.	4r	.	16d#X\LL	.	.	.	.	.	.	4r	4r	.
.	.	.	.	.	16e\	.	.	.	.	.	.	.	.	.
.	.	.	.	.	16d#\	.	.	.	.	.	.	.	.	.
.	.	.	.	.	16c#\JJ	.	.	.	.	.	.	.	.	.
!	!LO:LB:g=original	!	!	!	!	!	!	!	!	!	!	!	!	!
=29	=29	=29	=29	=29	=29	=29	=29	=29	=29	=29	=29	=29	=29	=29
!LO:TX:t=P:problem=mixed beam	!	!	!	!	!	!	!	!	!	!	!	!	!	!
8D\L	(16e/LL	.	(16cc#\LL	.	16c#\LL	pro-	2.ryy	2.ryy	2.ryy	2.ryy	2.ryy	4dd\	4bb\	.
.	16d/)	.	16b\)	.	16B\	.	.	.	.	.	.	.	.	.
8D\	(16f#/	.	16dd|\	.	16d\	.	.	.	.	.	.	.	.	.
.	16d/JJ)	.	16b|\JJ	.	16B\JJ	.	.	.	.	.	.	.	.	.
8E\	(16d/LL	.	(16b\LL	.	4A\	-pen-	.	.	.	.	.	4cc#\	4aa\	.
.	16c#/)	.	16a\)	.	.	.	.	.	.	.	.	.	.	.
8E\	(16e/	.	16cc#|\	.	.	.	.	.	.	.	.	.	.	.
.	16c#/JJ)	.	16a|\JJ	.	.	.	.	.	.	.	.	.	.	.
8EE/	(16c#/LL	.	(16a\LL	.	4G#X\	-si-	.	.	.	.	.	4b\	4gg#X\	.
.	16B/)	.	16g#X\)	.	.	.	.	.	.	.	.	.	.	.
8EE/J	(16d/	.	16b|\	.	.	.	.	.	.	.	.	.	.	.
.	16B/JJ)	.	16g#|\JJ	.	.	.	.	.	.	.	.	.	.	.
=30	=30	=30	=30	=30	=30	=30	=30	=30	=30	=30	=30	=30	=30	=30
*tremolo	*	*	*	*	*	*	*	*	*	*	*	*	*	*
!	!	!	!	!LO:DY:b:t=p.	!	!	!	!	!	!	!	!	!	!
8AA/L	4.c#/	.	4.a/	p	4A\	-o	2.ryy	2.ryy	2.ryy	2.ryy	2.ryy	4.cc#\	4.aa\	.
8AA/	.	.	.	.	.	.	.	.	.	.	.	.	.	.
8AA/	.	.	.	.	4r	.	.	.	.	.	.	.	.	.
8AA/J	8c#/L	.	8e/L	.	.	.	.	.	.	.	.	8cc#\L	8ee\L	.
8AA/L	8d/	.	8f#/	.	4r	.	.	.	.	.	.	8dd\	8ff#\	.
8AA/J	8e/J	.	8gn/J	.	.	.	.	.	.	.	.	8ee\J	8ggn\J	.
=31	=31	=31	=31	=31	=31	=31	=31	=31	=31	=31	=31	=31	=31	=31
8AA/L	4.d/	.	4.f#/	.	0.r	.	2.ryy	2.ryy	2.ryy	2.ryy	2.ryy	4.dd\	4.ff#\	.
8AA/	.	.	.	.	.	.	.	.	.	.	.	.	.	.
8AA/	.	.	.	.	.	.	.	.	.	.	.	.	.	.
8AA/J	8f#/L	.	8dd\L	.	.	.	.	.	.	.	.	8f#/L	8dd\L	.
*Xtremolo	*	*	*	*	*	*	*	*	*	*	*	*	*	*
8E\L	8e/	.	8b\	.	.	.	.	.	.	.	.	8e/	8cc#\	.
8E\J	8B/J	.	8g#X\J	.	.	.	.	.	.	.	.	8d/J	8g#X\J	.
=32	=32	=32	=32	=32	=32	=32	=32	=32	=32	=32	=32	=32	=32	=32
*tremolo	*	*	*	*	*	*	*	*	*	*	*	*	*	*
8AA/L	4.c#/	.	4.a|>/	.	.	.	2.ryy	2.ryy	2.ryy	2.ryy	2.ryy	4.cc#\	4.aa\	.
8AA/	.	.	.	.	.	.	.	.	.	.	.	.	.	.
8AA/	.	.	.	.	.	.	.	.	.	.	.	.	.	.
8AA/J	8c#/L	.	8e/L	.	.	.	.	.	.	.	.	8cc#\L	8ee\L	.
8AA/L	8d/	.	8f#/	.	.	.	.	.	.	.	.	8dd\	8ff#\	.
8AA/J	8e/J	.	8gn/J	.	.	.	.	.	.	.	.	8ee\J	8ggn\J	.
=33	=33	=33	=33	=33	=33	=33	=33	=33	=33	=33	=33	=33	=33	=33
8AA/L	4.d/	.	4.f#/	.	.	.	2.ryy	2.ryy	2.ryy	2.ryy	2.ryy	4.dd\	4.ff#\	.
8AA/	.	.	.	.	.	.	.	.	.	.	.	.	.	.
8AA/	.	.	.	.	.	.	.	.	.	.	.	.	.	.
8AA/J	8f#/L	.	8dd\L	.	.	.	.	.	.	.	.	8f#/L	8dd\L	.
8E\L	8e/	.	8b\	.	.	.	.	.	.	.	.	8e/	8cc#\	.
!	!	!	!	!	!	!	!	!	!	!	!	!	!LO:SIC:v:s=8g#\J	!
8E\J	8B/J	.	8g#X\J	.	.	.	.	.	.	.	.	8d/J	8g\J	.
*Xtremolo	*	*	*	*	*	*	*	*	*	*	*	*	*	*
=34	=34	=34	=34	=34	=34	=34	=34	=34	=34	=34	=34	=34	=34	=34
4AA/	4c#/	.	4a/	.	.	.	2.ryy	2.ryy	2.ryy	2.ryy	2.ryy	4c#/	4a/	.
4AA/	4c#/	.	4a/	.	.	.	.	.	.	.	.	4cc#\	4aa\	.
4AA/	4c#/	.	4a/	.	.	.	.	.	.	.	.	4cc#\	4aa\	.
=35	=35	=35	=35	=35	=35	=35	=35	=35	=35	=35	=35	=35	=35	=35
4AA/	2c#/	.	2a/	.	2.r	.	2.ryy	2.ryy	2.ryy	2.ryy	2.ryy	2cc#\	2aa\	.
2r	.	.	.	.	.	.	.	.	.	.	.	.	.	.
.	4r	.	4r	.	.	.	.	.	.	.	.	4r	4r	.
==	==	==	==	==	==	==	==	==	==	==	==	==	==	==
*-	*-	*-	*-	*-	*-	*-	*-	*-	*-	*-	*-	*-	*-	*-
!!!system-decoration: [(s1,s2)][(s3,s4)](s5)[(s6,s7,s8)][(s9,s10)](s11)
!!!RDF**kern: < = below
!!!RDF**kern: > = above
!!!RDF**kern: | = vertical stroke
!!!ENC: Andrzej Gręziak
!!!END: 2020-10-07
!!!ENC: Marta Chmielewska
!!!END: 2022-01-31
!!!YEC: Copyright 2022 Narodowy Instytut Fryderyka Chopina (https://polishscores.org)
!!!YEM: License CC-BY-4.0 (https://creativecommons.org/licenses/by/4.0)
